X: 20711
M: 2/4
L: 1/16
K: E
V: 1 staves=3
E2 |\
|: B2 |\
edef gagf | edef e2Bc | dedc BABc | dedc B2B2 |\
edef gagf | edef e2B2 | BABc dcBA | GFED E2 :|
V: 2
z2 |\
E2B,D EDEG | FEDF F2FA | GFED EFGA | BAGF G2[E2B,2] |\
E2B,D EDEG | FEDE F2FA | GABA GFED | [GE]FGA G2 :|
|: z2 |\
V: 3 clef=bass middle=d
z2 |\
e2e2 e2e2 | f2f2 f2f2 | B2B2 e2e2 | B2B2 B2e2 |\
e2e2 e2e2 | f2f2 f2f2 | e2e2 e2e2 | B2B2 e2 :|
|: z2 |\
e2e2 e2e2 | e2e2 e2z2 | B2B2 B2B2 | e2e2 B2B2 |\
e2e2 e2e2 | e2e2 e2B2 | e2e2 e2e2 | B2B2 e2 :|


